X: 391
T: Jiaocheng shan
L: 1/8
M: 2/4
K: F
c2B A [I:setbarnb 1]| 
d AG2 | 
c G A c | 
c F E D | 
c E G A | 
c F E D | 
C> D G F | 
C4 |]

@@@ Tune index: 9265
